X:9
T:Chante Alleluia au Seigneur
M:C
L:1/8
K:Cm
"Dom"G2FE "Solm"DC B,D|"Dom   Sib"G8|"Mib"G2FG "Sib"BG "Fa"FG|"Sol"G8|
"Dom"c2"Sib"de "Mib"dBG2|"Fam"A2"Sib"Bc "Mib"BGE2|"Dom"G2FE "Solm"DC B,D|"Lab Fam Dom"C8y|]
